X:13315
%392
T:Alan's Air
S:from Campbell's Tales of the West Highlands
E:16
K:Cmaj
M:4/4
ABA d3| A2 c BAG
%Error : Bar 1 is 3/4 not 4/4
| ABA d3
%Error : Bar 2 is 3/4 not 4/4
| ABc B2 G
%Error : Bar 3 is 3/4 not 4/4
| ABA d3
%Error : Bar 4 is 3/4 not 4/4
|
A2 c BAG
%Error : Bar 5 is 3/4 not 4/4
| AcB BAG
%Error : Bar 6 is 3/4 not 4/4
| GAc d2 c
%Error : Bar 7 is 3/4 not 4/4
|| ABA f3
%Error : Bar 8 is 3/4 not 4/4
| edc dcB
%Error : Bar 9 is 3/4 not 4/4
|
ABA f3
%Error : Bar 10 is 3/4 not 4/4
| cAc d2 c
%Error : Bar 11 is 3/4 not 4/4
| ABA f2 g
%Error : Bar 12 is 3/4 not 4/4
| edc dcB
%Error : Bar 13 is 3/4 not 4/4
| ABA G2 ^F
%Error : Bar 14 is 3/4 not 4/4
| GAc d2 c
%Error : Bar 15 is 3/4 not 4/4
||


